assets/icones/instagramIcon.svg

<svg width="16" height="15" viewBox="0 0 16 15" fill="none" xmlns="http://www.w3.org/2000/svg">
<path d="M8.07593 1.35085C10.081 1.35085 10.3185 1.35964 11.107 1.3948C11.8399 1.42704 12.2356 1.55011 12.4994 1.65267C12.8483 1.78746 13.1004 1.95155 13.3613 2.21235C13.6251 2.47607 13.7863 2.72514 13.9212 3.07384C14.0238 3.33757 14.1469 3.73608 14.1791 4.46572C14.2143 5.25689 14.2231 5.49424 14.2231 7.49561C14.2231 9.4999 14.2143 9.73725 14.1791 10.5255C14.1469 11.2581 14.0238 11.6536 13.9212 11.9174C13.7863 12.2661 13.6221 12.5181 13.3613 12.7789C13.0974 13.0426 12.8483 13.2038 12.4994 13.3385C12.2356 13.4411 11.8369 13.5642 11.107 13.5964C10.3155 13.6316 10.0781 13.6404 8.07593 13.6404C6.07085 13.6404 5.83341 13.6316 5.04486 13.5964C4.31201 13.5642 3.91627 13.4411 3.65244 13.3385C3.3036 13.2038 3.0515 13.0397 2.79061 12.7789C2.52678 12.5151 2.36555 12.2661 2.23071 11.9174C2.12811 11.6536 2.00499 11.2551 1.97274 10.5255C1.93757 9.73432 1.92877 9.49697 1.92877 7.49561C1.92877 5.49131 1.93757 5.25396 1.97274 4.46572C2.00499 3.73315 2.12811 3.33757 2.23071 3.07384C2.36555 2.72514 2.52971 2.47314 2.79061 2.21235C3.05443 1.94862 3.3036 1.78746 3.65244 1.65267C3.91627 1.55011 4.31494 1.42704 5.04486 1.3948C5.83341 1.35964 6.07085 1.35085 8.07593 1.35085ZM8.07593 0C6.0386 0 5.78357 0.00879078 4.9833 0.0439539C4.18596 0.079117 3.63778 0.208048 3.1629 0.392655C2.66749 0.586052 2.2483 0.840985 1.83204 1.26001C1.41285 1.67611 1.15781 2.09514 0.964341 2.58742C0.779663 3.06505 0.650681 3.61008 0.615504 4.40711C0.580327 5.21 0.571533 5.46493 0.571533 7.50147C0.571533 9.538 0.580327 9.79293 0.615504 10.5929C0.650681 11.3899 0.779663 11.9379 0.964341 12.4126C1.15781 12.9078 1.41285 13.3268 1.83204 13.7429C2.2483 14.159 2.66749 14.4169 3.15996 14.6073C3.63778 14.792 4.18302 14.9209 4.98037 14.956C5.78064 14.9912 6.03567 15 8.073 15C10.1103 15 10.3654 14.9912 11.1656 14.956C11.963 14.9209 12.5111 14.792 12.986 14.6073C13.4785 14.4169 13.8977 14.159 14.314 13.7429C14.7302 13.3268 14.9882 12.9078 15.1787 12.4155C15.3634 11.9379 15.4924 11.3929 15.5276 10.5958C15.5627 9.79586 15.5715 9.54093 15.5715 7.5044C15.5715 5.46787 15.5627 5.21293 15.5276 4.41297C15.4924 3.61594 15.3634 3.06798 15.1787 2.59328C14.994 2.09514 14.739 1.67611 14.3198 1.26001C13.9036 0.843915 13.4844 0.586052 12.9919 0.395585C12.5141 0.210979 11.9688 0.0820473 11.1715 0.0468842C10.3683 0.00879078 10.1133 0 8.07593 0Z" fill="white"/>
<path d="M8.07593 3.64817C5.94773 3.64817 4.22113 5.3741 4.22113 7.50147C4.22113 9.62883 5.94773 11.3548 8.07593 11.3548C10.2041 11.3548 11.9307 9.62883 11.9307 7.50147C11.9307 5.3741 10.2041 3.64817 8.07593 3.64817ZM8.07593 10.001C6.69524 10.001 5.57544 8.88162 5.57544 7.50147C5.57544 6.12131 6.69524 5.00195 8.07593 5.00195C9.45662 5.00195 10.5764 6.12131 10.5764 7.50147C10.5764 8.88162 9.45662 10.001 8.07593 10.001Z" fill="white"/>
<path d="M12.9831 3.49577C12.9831 3.99392 12.5786 4.39536 12.0832 4.39536C11.5848 4.39536 11.1832 3.99099 11.1832 3.49577C11.1832 2.99763 11.5878 2.59618 12.0832 2.59618C12.5786 2.59618 12.9831 3.00056 12.9831 3.49577Z" fill="white"/>
</svg>

<svg width="16" height="15" fill="none" xmlns="http://www.w3.org/2000/svg"><path d="M8.076 1.35c2.005 0 2.242.01 3.031.045.733.032 1.129.155 1.392.258.35.134.601.299.862.56.264.263.425.512.56.86.103.265.226.663.258 1.393.035.79.044 1.028.044 3.03 0 2.004-.009 2.241-.044 3.03-.032.732-.155 1.128-.258 1.391-.135.35-.299.601-.56.862a2.308 2.308 0 01-.862.56c-.263.102-.662.225-1.392.257-.791.036-1.029.044-3.031.044-2.005 0-2.243-.008-3.031-.044-.733-.032-1.129-.155-1.393-.258a2.32 2.32 0 01-.861-.56 2.308 2.308 0 01-.56-.86c-.103-.264-.226-.663-.258-1.393-.035-.79-.044-1.028-.044-3.03 0-2.004.009-2.241.044-3.03.032-.732.155-1.127.258-1.391.135-.349.299-.6.56-.862.263-.263.513-.425.861-.56.264-.102.663-.225 1.393-.257.788-.035 1.026-.044 3.03-.044zm0-1.35C6.039 0 5.784.009 4.983.044c-.797.035-1.345.164-1.82.349a3.663 3.663 0 00-1.331.867c-.42.416-.674.835-.868 1.327C.78 3.065.651 3.61.616 4.407.58 5.21.572 5.465.572 7.501c0 2.037.008 2.292.044 3.092.035.797.164 1.345.348 1.82.194.495.449.914.868 1.33.416.416.835.674 1.328.864.478.185 1.023.314 1.82.349.8.035 1.056.044 3.093.044s2.292-.009 3.093-.044c.797-.035 1.345-.164 1.82-.349.492-.19.912-.448 1.328-.864.416-.416.674-.835.865-1.328.184-.477.313-1.022.349-1.82.035-.8.043-1.054.043-3.09 0-2.037-.008-2.292-.043-3.092-.036-.797-.165-1.345-.35-1.82a3.514 3.514 0 00-.858-1.333 3.668 3.668 0 00-1.328-.864c-.478-.185-1.023-.314-1.82-.35C10.367.01 10.113 0 8.075 0z" fill="#fff"/><path d="M8.076 3.648A3.855 3.855 0 004.22 7.501a3.855 3.855 0 007.71 0 3.855 3.855 0 00-3.855-3.853zm0 6.353a2.5 2.5 0 110-5 2.5 2.5 0 010 5zM12.983 3.496a.9.9 0 11-1.8 0 .9.9 0 011.8 0z" fill="#fff"/></svg>
